packages/kaspersky-hexa-ui-icons/src/iconsSVGs/16/Switch1.svg

<svg width="16" height="16" viewBox="0 0 16 16" fill="none" xmlns="http://www.w3.org/2000/svg">
<path d="M12.4597 1.54048C12.2059 1.28664 11.7943 1.28664 11.5405 1.54048C11.2866 1.79432 11.2866 2.20588 11.5405 2.45972L12.4309 3.3501H9.44162C8.30098 3.3501 7.28831 4.07999 6.92761 5.16209L6.50597 6.42701C6.32221 6.97827 5.80633 7.3501 5.22525 7.3501H2.0001C1.64111 7.3501 1.3501 7.64111 1.3501 8.0001C1.3501 8.35908 1.64111 8.6501 2.0001 8.6501H5.22525C6.36589 8.6501 7.37855 7.92021 7.73926 6.8381L8.16089 5.57319C8.34465 5.02193 8.86054 4.6501 9.44162 4.6501H12.4309L11.5405 5.54048C11.2866 5.79432 11.2866 6.20588 11.5405 6.45972C11.7943 6.71356 12.2059 6.71356 12.4597 6.45972L14.4597 4.45972C14.7136 4.20588 14.7136 3.79432 14.4597 3.54048L12.4597 1.54048Z" fill="black"/>
<path d="M12.4597 14.4597C12.2059 14.7136 11.7943 14.7136 11.5405 14.4597C11.2866 14.2059 11.2866 13.7943 11.5405 13.5405L12.4309 12.6501H9.23617C8.23242 12.6501 7.31482 12.083 6.86593 11.1852L6.41872 10.2908C6.25818 9.9697 6.38832 9.57926 6.70941 9.41872C7.0305 9.25818 7.42093 9.38832 7.58148 9.70941L8.02869 10.6038C8.25737 11.0612 8.72482 11.3501 9.23617 11.3501H12.4309L11.5405 10.4597C11.2866 10.2059 11.2866 9.79432 11.5405 9.54048C11.7943 9.28664 12.2059 9.28664 12.4597 9.54048L14.4597 11.5405C14.7136 11.7943 14.7136 12.2059 14.4597 12.4597L12.4597 14.4597Z" fill="black"/>
</svg>

<svg xmlns="http://www.w3.org/2000/svg" width="16" height="16" fill="none" viewBox="0 0 16 16"><path fill="#000" d="M12.46 1.541a.65.65 0 1 0-.919.919l.89.89H9.442a2.65 2.65 0 0 0-2.514 1.812l-.422 1.265a1.35 1.35 0 0 1-1.281.923H2a.65.65 0 1 0 0 1.3h3.225a2.65 2.65 0 0 0 2.514-1.812l.422-1.265a1.35 1.35 0 0 1 1.281-.923h2.989l-.89.89a.65.65 0 1 0 .919.919l2-2a.65.65 0 0 0 0-.919zm0 12.919a.65.65 0 0 1-.919 0 .65.65 0 0 1 0-.919l.89-.89H9.236a2.65 2.65 0 0 1-2.37-1.465l-.447-.894a.65.65 0 0 1 1.163-.581l.447.894a1.35 1.35 0 0 0 1.208.746h3.195l-.89-.89a.65.65 0 1 1 .919-.919l2 2a.65.65 0 0 1 0 .919z"/></svg>
